X: 1131
T: Lady Helonora Home's Reel
%R: reel
B: Niel Gow & Sons "A Collection of Strathspey Reels, etc." v.1 p.13 #1
Z: 2022 John Chambers <jc:trillian.mit.edu>
M: C|
L: 1/8
K: D
% - - - - - - - - - -
% Voice 1 reformatted for 2 8-bar lines, for compactness and proofreading.
V: 1 staves=2
|:\
(Dd)(Tdc) (TcB)(TBA) | afdf edef | (Dd)(Tdc) (TcB)(TBA) | AFEF D/D/D D2 ::\
A,DA,D B,DB,D | A,DGA (B/A/G/F/ E)F | A,DA,D B,DGB | AFEF D/D/D D2 ::
(aba).f dfdf | (g/b/g) (f/a/f) edef | abaf defd | Bgfe d/d/d d2 ::\
(TBA)(TAG) (TGF)(TFE) | (D/E/F/G/ A)F EDEF | (TBA)(TAG) (TGF)(TED) | B,BAF D/D/D D2 :|
% - - - - - - - - - -
% Voice 2 preserves the staff layout in the book.
V: 2 clef=bass middle=d
|:\
d2d2 d2d2 | d2d2 e2e2 | d2d2 d2d2 | A2A2 d2d2 :: d2d2 d2d2 |
d2d2 e2e2 | d2d2 G2G2 | A2A2 d2d2 :: d2d2 d2d2 | d2d2 e2e2 | d2d2 d2d2 |
g2a2 d2d2 :: d2d2 d2d2 | d2d2 e2e2 | d2d2 d2d2 | A2A2 d2d2 :|


